src/assets/filled/Arrow3.svg

<svg width="24" height="24" viewBox="0 0 24 24"  xmlns="http://www.w3.org/2000/svg">
<path d="M10.9799 6.19L7.26994 2.48C7.19994 2.41 7.10994 2.35 7.00994 2.31C6.99994 2.31 6.98994 2.31 6.97994 2.3C6.89994 2.27 6.81994 2.25 6.72994 2.25C6.52994 2.25 6.33994 2.33 6.19994 2.47L2.46994 6.19C2.17994 6.48 2.17994 6.96 2.46994 7.25C2.75994 7.54 3.23994 7.54 3.52994 7.25L5.97994 4.8V21C5.97994 21.41 6.31994 21.75 6.72994 21.75C7.13994 21.75 7.47994 21.41 7.47994 21V4.81L9.91994 7.25C10.0699 7.4 10.2599 7.47 10.4499 7.47C10.6399 7.47 10.8299 7.4 10.9799 7.25C11.2699 6.96 11.2699 6.49 10.9799 6.19Z" />
<path d="M21.53 16.75C21.24 16.46 20.76 16.46 20.47 16.75L18.02 19.2V3C18.02 2.59 17.68 2.25 17.27 2.25C16.86 2.25 16.52 2.59 16.52 3V19.19L14.08 16.75C13.79 16.46 13.31 16.46 13.02 16.75C12.73 17.04 12.73 17.52 13.02 17.81L16.73 21.52C16.8 21.59 16.89 21.65 16.99 21.69C17 21.69 17.01 21.69 17.02 21.7C17.1 21.73 17.19 21.75 17.28 21.75C17.48 21.75 17.67 21.67 17.81 21.53L21.53 17.81C21.82 17.51 21.82 17.04 21.53 16.75Z" />
</svg>

<?xml version="1.0" encoding="UTF-8"?>
<svg width="24" height="24" viewBox="0 0 24 24" xmlns="http://www.w3.org/2000/svg">
 <path d="m10.98 6.19-3.71-3.71c-0.07-0.07-0.16-0.13-0.26-0.17-0.01 0-0.02 0-0.03-0.01-0.08-0.03-0.16-0.05-0.25-0.05-0.2 0-0.39 0.08-0.53 0.22l-3.73 3.72c-0.29 0.29-0.29 0.77 0 1.06s0.77 0.29 1.06 0l2.45-2.45v16.2c0 0.41 0.34 0.75 0.75 0.75s0.75-0.34 0.75-0.75v-16.19l2.44 2.44c0.14996 0.15 0.33996 0.22 0.52996 0.22s0.38-0.07 0.53-0.22c0.29-0.29 0.29-0.76 0-1.06z"/>
 <path d="m21.53 16.75c-0.29-0.29-0.77-0.29-1.06 0l-2.45 2.45v-16.2c0-0.41-0.34-0.75-0.75-0.75s-0.75 0.34-0.75 0.75v16.19l-2.44-2.44c-0.29-0.29-0.77-0.29-1.06 0s-0.29 0.77 0 1.06l3.71 3.71c0.07 0.07 0.16 0.13 0.26 0.17 0.01 0 0.02 0 0.03 0.01 0.08 0.03 0.17 0.05 0.26 0.05 0.2 0 0.39-0.08 0.53-0.22l3.72-3.72c0.29-0.3 0.29-0.77 0-1.06z"/>
</svg>
